X:1
T:Dinky's Reel
Z:robin.beech@mcgill.ca
R:reel
M:4/4
L:1/8
K:Amix
ed |: c/d/c B/c/B ABcd | egfd edBd | gB B2 gBaB | gB B2 gfed |
c/d/c B/c/B ABcd | eged edBd | g2gd efed | c2 B2 A2 dc ::
aA A/A/A aAbA | aA A/A/A agef | gBB2 gBaB | gBB2 gfeg |1
aAA2 aAbA | AaA2 agef | g2gd efed | c2 B2 Aefg :|2
aA A/A/A gA A/A/A | fA A/A/A edef | gfgd efed | c2 B2 c2 ed |]
